X:15
T: Fido's Favorite
C: J.Madden
Z: B.Black
R: reel
M: 4/4
L: 1/8
K: D
AF F2 DF F2|GE E2 A2 GE|FD D2 DFAF|GBAG FD D2 |
AF F2 DF F2|GE E2 A2 GE|FD D2 DFAF |1 GBAG FD D2 :|2\
GFEG FD D2 ||
AF (3FEF ABde|ed=cA BG G2|AF (3FEF ABde|g2 af gfge |
AF (3FEF ABde|ed=cA BG G2|AF F2 D2 AF|GFEG FD D2 :|
